X: 50
T:Star of Munster
M:4/4
L:1/8
R:Reel
K:ADor
|:ed|c2 Ac BAGB|AGEF GED2|EAAB cBcd|eaaf gfed|
|cBAc BAGB|AGEF GEDF|EAAB cded|cABG A2:|
|Bd|:eaab ageg|agbg agef|gfga gfef|geaf gfed|
|eaab ageg|agbg agef|~g2ge~a2af|b2 ba gfed:|
